X: 1
T: Shoes and Stockings
R: march, reel
Z: 2020 John Chambers <jc:trillian.mit.edu>
S: https://www.facebook.com/groups/Fiddletuneoftheday/
S: https://www.facebook.com/groups/Fiddletuneoftheday/photos/ 2020-4-28
M: C|
L: 1/8
K: G
(3DEF |\
G2A2 B2B2 | cBc2 d2 (3DEF | G2AA B2BB | cBAG FDEF |
GFGA BAB2 | cBc2 d2Bc | dedB cBA2 | G4- G2 :| Bd |
|:\
g2gg a2aa | b2b2 d2B2 | c3B A2B2 | c2^c2 d2e2 |
g2gg aaa2 | bbb2 d2B2 | c3B A2B2 | cBAF [1 G2e2 :|2 G2 |]
